public/img/moods/irritable.svg

<?xml version="1.0" encoding="UTF-8" standalone="no"?>
<!-- Generator: Adobe Illustrator 16.0.0, SVG Export Plug-In . SVG Version: 6.00 Build 0)  -->
<!DOCTYPE svg  PUBLIC '-//W3C//DTD SVG 1.1//EN'  'http://www.w3.org/Graphics/SVG/1.1/DTD/svg11.dtd'>
<svg id="Capa_1" style="enable-background:new 0 0 478.2 478.2" xmlns="http://www.w3.org/2000/svg" xml:space="preserve" height="512px" viewBox="0 0 478.2 478.2" width="512px" version="1.1" y="0px" x="0px" xmlns:xlink="http://www.w3.org/1999/xlink">
	<path d="m239.1 0c-132 0-239.1 107.1-239.1 239.1s107.1 239.1 239.1 239.1 239.1-107.1 239.1-239.1-107.2-239.1-239.1-239.1zm0 459c-122.4 0-219.9-97.5-219.9-219.9s97.5-219.9 219.9-219.9 219.9 97.5 219.9 219.9-97.5 219.9-219.9 219.9zm-86.1-248.6c-10.5 0-19.1-8.6-19.1-19.1s8.6-19.1 19.1-19.1 19.1 8.6 19.1 19.1-8.6 19.1-19.1 19.1zm126.7-37.6l-10.7-15.8 63.4-42.8 10.7 15.8-63.4 42.8zm-81.2-0.1l-63.4-42.8 10.7-15.8 63.4 42.8-10.7 15.8zm-45.5 152.4h172.1v19.1h-172.1v-19.1zm191.2-133.8c0 10.5-8.601 19.1-19.101 19.1s-19.1-8.6-19.1-19.1 8.6-19.1 19.1-19.1 19.1 8.6 19.1 19.1z" fill="#5ab4ae"/>
</svg>

<?xml version="1.0" encoding="iso-8859-1"?>
<!-- Generator: Adobe Illustrator 16.0.0, SVG Export Plug-In . SVG Version: 6.00 Build 0)  -->
<!DOCTYPE svg PUBLIC "-//W3C//DTD SVG 1.1//EN" "http://www.w3.org/Graphics/SVG/1.1/DTD/svg11.dtd">
<svg xmlns="http://www.w3.org/2000/svg" xmlns:xlink="http://www.w3.org/1999/xlink" version="1.1" id="Capa_1" x="0px" y="0px" width="512px" height="512px" viewBox="0 0 478.2 478.2" style="enable-background:new 0 0 478.2 478.2;" xml:space="preserve">
<g>
	<path d="M239.1,0C107.1,0,0,107.1,0,239.1C0,371.1,107.1,478.2,239.1,478.2C371.1,478.2,478.2,371.1,478.2,239.1   C478.2,107.1,371,0,239.1,0z M239.1,459C116.7,459,19.2,361.5,19.2,239.1C19.2,116.7,116.7,19.2,239.1,19.2   C361.5,19.2,459,116.7,459,239.1C459,361.5,361.5,459,239.1,459z M153,210.4c-10.5,0-19.1-8.6-19.1-19.1s8.6-19.1,19.1-19.1   s19.1,8.6,19.1,19.1S163.5,210.4,153,210.4z M279.7,172.8L269,157l63.4-42.8L343.1,130L279.7,172.8z M198.5,172.7l-63.4-42.8   l10.7-15.8l63.4,42.8L198.5,172.7z M153,325.1h172.1V344.2H153V325.1z M344.2,191.3c0,10.5-8.601,19.1-19.101,19.1   s-19.1-8.6-19.1-19.1s8.6-19.1,19.1-19.1S344.2,180.8,344.2,191.3z" fill="#5ab4ae"/>
</g>
<g>
</g>
<g>
</g>
<g>
</g>
<g>
</g>
<g>
</g>
<g>
</g>
<g>
</g>
<g>
</g>
<g>
</g>
<g>
</g>
<g>
</g>
<g>
</g>
<g>
</g>
<g>
</g>
<g>
</g>
</svg>
